public/assets/deck/deck.svg

<?xml version="1.0" encoding="UTF-8" standalone="no"?>
<!-- Created with Inkscape (http://www.inkscape.org/) -->
<svg
   xmlns:dc="http://purl.org/dc/elements/1.1/"
   xmlns:cc="http://web.resource.org/cc/"
   xmlns:rdf="http://www.w3.org/1999/02/22-rdf-syntax-ns#"
   xmlns:svg="http://www.w3.org/2000/svg"
   xmlns="http://www.w3.org/2000/svg"
   xmlns:xlink="http://www.w3.org/1999/xlink"
   xmlns:sodipodi="http://inkscape.sourceforge.net/DTD/sodipodi-0.dtd"
   xmlns:inkscape="http://www.inkscape.org/namespaces/inkscape"
   sodipodi:docbase="/home/nicu/Desktop/cards"
   sodipodi:docname="back2.svg"
   inkscape:version="0.41"
   sodipodi:version="0.32"
   version="1.0"
   x="0.0000000"
   y="0.0000000"
   width="140.00000"
   height="190.00000"
   id="svg2">
  
  <sodipodi:namedview
     inkscape:current-layer="svg2"
     inkscape:window-y="26"
     inkscape:window-x="0"
     inkscape:cy="95.000001"
     inkscape:cx="70.000003"
     inkscape:zoom="1.9105263"
     inkscape:window-height="791"
     inkscape:window-width="1152"
     inkscape:pageshadow="2"
     inkscape:pageopacity="0.0"
     borderopacity="1.0"
     bordercolor="#666666"
     pagecolor="#ffffff"
     id="base" />
  <defs
     id="defs3">
    <linearGradient
       id="linearGradient8303">
      <stop
         style="stop-color:#000086;stop-opacity:1.0000000;"
         offset="0.0000000"
         id="stop8314" />
      <stop
         style="stop-color:#005aff;stop-opacity:1.0000000;"
         offset="1.0000000"
         id="stop8316" />
    </linearGradient>
    <linearGradient
       id="linearGradient2060">
      <stop
         style="stop-color:#ebf0d0;stop-opacity:1.0000000;"
         offset="0.0000000"
         id="stop2062" />
      <stop
         style="stop-color:#ffffeb;stop-opacity:1.0000000;"
         offset="1.0000000"
         id="stop2064" />
    </linearGradient>
    <linearGradient
       x1="2.0000000"
       y1="63.099518"
       x2="109.00000"
       y2="128.69501"
       id="linearGradient4853"
       xlink:href="#linearGradient2060"
       gradientUnits="userSpaceOnUse"
       gradientTransform="translate(0.000000,-1.000000)" />
    <linearGradient
       x1="138.23376"
       y1="146.61710"
       x2="36.519855"
       y2="18.728254"
       id="linearGradient8318"
       xlink:href="#linearGradient8303"
       gradientUnits="userSpaceOnUse"
       gradientTransform="scale(0.854242,1.170628)" />
    <linearGradient
       x1="22.029089"
       y1="17.152563"
       x2="146.39938"
       y2="140.45406"
       id="linearGradient9086"
       xlink:href="#linearGradient8303"
       gradientUnits="userSpaceOnUse"
       gradientTransform="scale(0.855373,1.169081)" />
    <pattern
       id="pattern10642"
       patternTransform="translate(15.00000,-5.000000)"
       height="13.750009"
       width="14.142157"
       patternUnits="userSpaceOnUse">
      <g
         transform="translate(31.25001,-2.928924)"
         style="fill:#ffffff;fill-opacity:1.0000000"
         id="g10644">
        <rect
           transform="matrix(0.707107,0.707107,-0.707107,0.707107,0.000000,0.000000)"
           y="21.668146"
           x="-17.526024"
           height="5.0000029"
           width="5.0000029"
           id="rect10646"
           style="stroke:none;stroke-width:1.2500000;stroke-miterlimit:4.0000000;stroke-opacity:1.0000000" />
        <rect
           transform="matrix(0.707107,0.707107,-0.707107,0.707107,0.000000,0.000000)"
           y="26.390863"
           x="-12.803310"
           height="5.0000057"
           width="5.0000057"
           id="rect10648"
           style="stroke:none;stroke-width:1.2500000;stroke-miterlimit:4.0000000;stroke-opacity:1.0000000" />
        <rect
           transform="matrix(0.707107,0.707107,-0.707107,0.707107,0.000000,0.000000)"
           y="16.668142"
           x="-12.526019"
           height="5.0000057"
           width="5.0000057"
           id="rect10650"
           style="stroke:none;stroke-width:1.2500000;stroke-miterlimit:4.0000000;stroke-opacity:1.0000000" />
        <rect
           transform="matrix(0.707107,0.707107,-0.707107,0.707107,0.000000,0.000000)"
           y="21.390858"
           x="-7.8033042"
           height="5.0000057"
           width="5.0000057"
           id="rect10652"
           style="stroke:none;stroke-width:1.2500000;stroke-miterlimit:4.0000000;stroke-opacity:1.0000000" />
      </g>
    </pattern>
  </defs>
  <g
     id="g5630">
    <path
       d="M 21.000000,5.0000000 L 124.00000,5.0000000 C 132.86400,5.0000000 140.00000,12.136000 140.00000,21.000000 L 140.00000,174.00000 C 140.00000,182.86400 132.86400,190.00000 124.00000,190.00000 L 21.000000,190.00000 C 12.136000,190.00000 5.0000000,182.86400 5.0000000,174.00000 L 5.0000000,21.000000 C 5.0000000,12.136000 12.136000,5.0000000 21.000000,5.0000000 z "
       style="fill:#000000;fill-opacity:0.49803922;stroke:none;stroke-width:0.20000000;stroke-miterlimit:4.0000000;stroke-dashoffset:0.0000000;stroke-opacity:1.0000000"
       id="rect2070" />
    <path
       d="M 17.000000,1.0000000 L 120.00000,1.0000000 C 128.86400,1.0000000 136.00000,8.1360000 136.00000,17.000000 L 136.00000,170.00000 C 136.00000,178.86400 128.86400,186.00000 120.00000,186.00000 L 17.000000,186.00000 C 8.1360000,186.00000 1.0000000,178.86400 1.0000000,170.00000 L 1.0000000,17.000000 C 1.0000000,8.1360000 8.1360000,1.0000000 17.000000,1.0000000 z "
       style="fill:#ffffff;fill-opacity:1.0000000;stroke:none;stroke-width:0.20000000;stroke-miterlimit:4.0000000;stroke-dashoffset:0.0000000;stroke-opacity:1.0000000"
       id="rect1300" />
    <path
       d="M 19.000000,3.0000000 L 122.00000,3.0000000 C 130.86400,3.0000000 138.00000,10.136000 138.00000,19.000000 L 138.00000,172.00000 C 138.00000,180.86400 130.86400,188.00000 122.00000,188.00000 L 19.000000,188.00000 C 10.136000,188.00000 3.0000000,180.86400 3.0000000,172.00000 L 3.0000000,19.000000 C 3.0000000,10.136000 10.136000,3.0000000 19.000000,3.0000000 z "
       style="fill:#c7891f;fill-opacity:1.0000000;stroke:none;stroke-width:0.20000000;stroke-miterlimit:4.0000000;stroke-dashoffset:0.0000000;stroke-opacity:1.0000000"
       id="path5624" />
    <path
       d="M 18.000000,1.9999995 L 121.00000,1.9999995 C 129.86400,1.9999995 137.00000,9.1359995 137.00000,18.000000 L 137.00000,171.00000 C 137.00000,179.86400 129.86400,187.00000 121.00000,187.00000 L 18.000000,187.00000 C 9.1360000,187.00000 2.0000000,179.86400 2.0000000,171.00000 L 2.0000000,18.000000 C 2.0000000,9.1359995 9.1360000,1.9999995 18.000000,1.9999995 z "
       style="fill:url(#linearGradient4853);fill-opacity:1.0000000;stroke:none;stroke-width:0.20000000;stroke-miterlimit:4.0000000;stroke-dashoffset:0.0000000;stroke-opacity:1.0000000"
       id="rect1306" />
  </g>
  <path
     d="M 22.166666,10.000000 L 116.58333,10.000000 C 124.70867,10.000000 131.25000,16.541333 131.25000,24.666666 L 131.25000,164.91666 C 131.25000,173.04200 124.70867,179.58333 116.58333,179.58333 L 22.166666,179.58333 C 14.041333,179.58333 7.5000000,173.04200 7.5000000,164.91666 L 7.5000000,24.666666 C 7.5000000,16.541333 14.041333,10.000000 22.166666,10.000000 z "
     style="fill:url(#linearGradient8318);fill-opacity:1.0000000;stroke:none;stroke-width:0.20000000;stroke-miterlimit:4.0000000;stroke-dashoffset:0.0000000;stroke-opacity:1.0000000"
     id="path1385" />
  <path
     d="M 22.166666,10.000000 L 116.58333,10.000000 C 124.70867,10.000000 131.25000,16.541333 131.25000,24.666666 L 131.25000,164.91666 C 131.25000,173.04200 124.70867,179.58333 116.58333,179.58333 L 22.166666,179.58333 C 14.041333,179.58333 7.5000000,173.04200 7.5000000,164.91666 L 7.5000000,24.666666 C 7.5000000,16.541333 14.041333,10.000000 22.166666,10.000000 z "
     style="fill:url(#pattern10642);fill-opacity:1.0000000;stroke:none;stroke-width:0.20000000;stroke-miterlimit:4.0000000;stroke-dashoffset:0.0000000;stroke-opacity:1.0000000"
     id="path9846" />
  <path
     d="M 22.156250,9.3750000 C 13.695478,9.3750000 6.8750000,16.195478 6.8750000,24.656250 L 6.8750000,164.90625 C 6.8750000,173.36703 13.695478,180.21875 22.156250,180.21875 L 116.59375,180.21875 C 125.05453,180.21875 131.87500,173.36703 131.87500,164.90625 L 131.87500,24.656250 C 131.87500,16.195478 125.05453,9.3750000 116.59375,9.3750000 L 22.156250,9.3750000 z M 22.156250,10.625000 L 116.59375,10.625000 C 124.38365,10.625000 130.62500,16.866356 130.62500,24.656250 L 130.62500,164.90625 C 130.62500,172.69615 124.38365,178.96875 116.59375,178.96875 L 22.156250,178.96875 C 14.366356,178.96875 8.1250000,172.69615 8.1250000,164.90625 L 8.1250000,24.656250 C 8.1250000,16.866356 14.366356,10.625000 22.156250,10.625000 z "
     style="fill:url(#linearGradient9086);fill-opacity:1.0000000;stroke:none;stroke-width:1.2500000;stroke-miterlimit:4.0000000;stroke-dashoffset:0.0000000;stroke-opacity:1.0000000"
     id="path2154" />

  

  <metadata>
    <rdf:RDF 
     xmlns="http://web.resource.org/cc/"
     xmlns:dc="http://purl.org/dc/elements/1.1/"
     xmlns:rdf="http://www.w3.org/1999/02/22-rdf-syntax-ns#">
      <Work rdf:about="">
        <dc:title>card</dc:title>
        <dc:description></dc:description>
        <dc:subject>
          <rdf:Bag>
            <rdf:li>card</rdf:li>
            <rdf:li>back</rdf:li>
          </rdf:Bag>
        </dc:subject>
        <dc:publisher>
           <Agent>
             <dc:title></dc:title>
           </Agent>
         </dc:publisher>
         <dc:creator>
           <Agent>
             <dc:title>Nicu Buculei</dc:title>
           </Agent>
        </dc:creator>
         <dc:rights>
           <Agent>
             <dc:title>Nicu Buculei</dc:title>
           </Agent>
        </dc:rights>
        <dc:date></dc:date>
        <dc:format>image/svg+xml</dc:format>
        <dc:type rdf:resource="http://purl.org/dc/dcmitype/StillImage" />
        <license rdf:resource="http://web.resource.org/cc/PublicDomain" />
        <dc:language>en</dc:language>
      </Work>

      <License rdf:about="http://web.resource.org/cc/PublicDomain">
         <permits rdf:resource="http://web.resource.org/cc/Reproduction" />
         <permits rdf:resource="http://web.resource.org/cc/Distribution" />
         <permits rdf:resource="http://web.resource.org/cc/DerivativeWorks" />
      </License>

    </rdf:RDF>
  </metadata>
</svg>

<?xml version="1.0" encoding="UTF-8"?>
<svg width="140" height="190" xmlns="http://www.w3.org/2000/svg" xmlns:svg="http://www.w3.org/2000/svg" xmlns:xlink="http://www.w3.org/1999/xlink">
 <defs>
  <linearGradient id="linearGradient8303">
   <stop offset="0" id="stop8314" stop-color="#000086"/>
   <stop offset="1" id="stop8316" stop-color="#005aff"/>
  </linearGradient>
  <linearGradient x1="0.095745" y1="0.0625" x2="0.946809" y2="0.90625" id="linearGradient9086" xlink:href="#linearGradient8303"/>
  <pattern id="pattern10642" patternTransform="translate(15.00000,-5.000000)" height="13.750009" width="14.142157" patternUnits="userSpaceOnUse">
   <g transform="translate(31.25001,-2.928924)" id="g10644" fill="#ffffff">
    <rect transform="matrix(0.707107,0.707107,-0.707107,0.707107,0.000000,0.000000)" y="21.668146" x="-17.526024" height="5.000003" width="5.000003" id="rect10646" stroke-miterlimit="4" stroke-width="1.25"/>
    <rect transform="matrix(0.707107,0.707107,-0.707107,0.707107,0.000000,0.000000)" y="26.390863" x="-12.80331" height="5.000006" width="5.000006" id="rect10648" stroke-miterlimit="4" stroke-width="1.25"/>
    <rect transform="matrix(0.707107,0.707107,-0.707107,0.707107,0.000000,0.000000)" y="16.668142" x="-12.526019" height="5.000006" width="5.000006" id="rect10650" stroke-miterlimit="4" stroke-width="1.25"/>
    <rect transform="matrix(0.707107,0.707107,-0.707107,0.707107,0.000000,0.000000)" y="21.390858" x="-7.803304" height="5.000006" width="5.000006" id="rect10652" stroke-miterlimit="4" stroke-width="1.25"/>
   </g>
  </pattern>
 </defs>
 <metadata>cardcardbackNicu BuculeiNicu Buculeiimage/svg+xmlen</metadata>
 <g>
  <title>Layer 1</title>
  <g id="g5630">
   <path d="m21,5l103,0c8.863998,0 16,7.136 16,16l0,153c0,8.863998 -7.136002,16 -16,16l-103,0c-8.864,0 -16,-7.136002 -16,-16l0,-153c0,-8.864 7.136,-16 16,-16z" id="rect2070" stroke-dashoffset="0" stroke-miterlimit="4" stroke-width="0.2" fill-opacity="0.498039" fill="#00007f"/>
   <path d="m17,1l103,0c8.863998,0 16,7.136 16,16l0,153c0,8.863998 -7.136002,16 -16,16l-103,0c-8.864,0 -16,-7.136002 -16,-16l0,-153c0,-8.864 7.136,-16 16,-16z" id="rect1300" stroke-dashoffset="0" stroke-miterlimit="4" stroke-width="0.2" fill="#00007f"/>
   <path d="m19,3l103,0c8.863998,0 16,7.136 16,16l0,153c0,8.863998 -7.136002,16 -16,16l-103,0c-8.864,0 -16,-7.136002 -16,-16l0,-153c0,-8.864 7.136,-16 16,-16z" id="path5624" stroke-dashoffset="0" stroke-miterlimit="4" stroke-width="0.2" fill="#00007f"/>
   <path d="m18,2l103,0c8.863998,0 16,7.136 16,16l0,153c0,8.863998 -7.136002,16 -16,16l-103,0c-8.864,0 -16,-7.136002 -16,-16l0,-153c0,-8.864 7.136,-16 16,-16z" id="rect1306" stroke-dashoffset="0" stroke-miterlimit="4" stroke-width="0.2" fill="#00007f"/>
  </g>
  <path opacity="0.85" d="m22.166666,10l94.416662,0c8.125343,0 14.666672,6.541332 14.666672,14.666666l0,140.24999c0,8.125351 -6.541328,14.666672 -14.666672,14.666672l-94.416662,0c-8.125333,0 -14.666666,-6.541321 -14.666666,-14.666672l0,-140.24999c0,-8.125334 6.541333,-14.666666 14.666666,-14.666666z" id="path1385" stroke-dashoffset="0" stroke-miterlimit="4" stroke-width="0.2" fill="#ffffff"/>
  <path d="m22.15625,9.375c-8.460772,0 -15.28125,6.820478 -15.28125,15.28125l0,140.25c0,8.460785 6.820478,15.3125 15.28125,15.3125l94.4375,0c8.460777,0 15.28125,-6.851715 15.28125,-15.3125l0,-140.25c0,-8.460772 -6.820473,-15.28125 -15.28125,-15.28125l-94.4375,0zm0,1.25l94.4375,0c7.789902,0 14.03125,6.241356 14.03125,14.03125l0,140.25c0,7.789902 -6.241348,14.0625 -14.03125,14.0625l-94.4375,0c-7.789894,0 -14.03125,-6.272598 -14.03125,-14.0625l0,-140.25c0,-7.789894 6.241356,-14.03125 14.03125,-14.03125z" id="path2154" stroke-dashoffset="0" stroke-miterlimit="4" stroke-width="1.25" fill="url(#linearGradient9086)"/>
  <polygon fill="#ffffff" points="454.15149688720703,30.45208740234375 438.11410903930664,45.696502685546875 422.0767402648926,30.45208740234375 438.11410903930664,15.207664489746094 454.15149688720703,30.45208740234375 " stroke-width="0.2" id="svg_8"/>
  <polygon fill="#ffffff" points="515.70361328125,30.05625405907631 499.66619873046875,45.300669342279434 483.62884521484375,30.05625405907631 499.66619873046875,14.811838775873184 515.70361328125,30.05625405907631 " stroke-width="0.2" id="svg_9"/>
  <polygon fill="#ffffff" points="484.67962646484375,30.05625405907631 468.64227294921875,45.300669342279434 452.60491943359375,30.05625405907631 468.64227294921875,14.811838775873184 484.67962646484375,30.05625405907631 " stroke-width="0.2" id="svg_10"/>
  <polygon id="svg_39" fill="#ffffff"/>
 </g>
</svg>
